dist/img/ft2.svg

<svg width="18" height="18" fill="none" xmlns="http://www.w3.org/2000/svg"><g clip-path="url(#clip0_1275_5301)"><path d="M15 3H3c-.825 0-1.492.675-1.492 1.5l-.008 9c0 .825.675 1.5 1.5 1.5h12c.825 0 1.5-.675 1.5-1.5v-9c0-.825-.675-1.5-1.5-1.5zm0 10.5H3V6l6 3.75L15 6v7.5zM9 8.25L3 4.5h12L9 8.25z" fill="#EDECF4"/></g><defs><clipPath id="clip0_1275_5301"><path fill="#fff" d="M0 0h18v18H0z"/></clipPath></defs></svg>

<svg width="18" height="18" viewBox="0 0 18 18" fill="none" xmlns="http://www.w3.org/2000/svg">
<g clip-path="url(#clip0_1275_5301)">
<path d="M15 3H3C2.175 3 1.5075 3.675 1.5075 4.5L1.5 13.5C1.5 14.325 2.175 15 3 15H15C15.825 15 16.5 14.325 16.5 13.5V4.5C16.5 3.675 15.825 3 15 3ZM15 13.5H3V6L9 9.75L15 6V13.5ZM9 8.25L3 4.5H15L9 8.25Z" fill="#EDECF4"/>
</g>
<defs>
<clipPath id="clip0_1275_5301">
<rect width="18" height="18" fill="white"/>
</clipPath>
</defs>
</svg>
